src/sources/forus-platform/resources/_platform-common/assets/img/menu/icon-dropdown-notifications.svg

<svg width="32" height="32" viewBox="0 0 32 32" fill="none" xmlns="http://www.w3.org/2000/svg">
<path fill-rule="evenodd" clip-rule="evenodd" d="M15.633 9.3211C12.5455 9.3211 11.0642 11.3242 11.0642 13.1241V16.7339C11.0642 16.9245 10.9819 17.1058 10.8385 17.2312L9.41017 18.4801C9.39182 18.4961 9.37259 18.5112 9.35258 18.5251C9.33286 18.5388 9.3211 18.5613 9.3211 18.5853V19.6697C9.3211 19.7103 9.35396 19.7431 9.3945 19.7431H21.8716C21.9121 19.7431 21.945 19.7103 21.945 19.6697V18.5853C21.945 18.5613 21.9332 18.5388 21.9135 18.5251C21.8935 18.5112 21.8742 18.4961 21.8559 18.4801L20.4276 17.2312C20.2841 17.1058 20.2018 16.9245 20.2018 16.7339V13.1241C20.2018 11.2486 18.7284 9.3211 15.633 9.3211ZM18.6038 21.0642H12.6682C12.7671 21.4822 13.0381 21.8461 13.4236 22.0588C14.19 22.4817 14.9241 22.6789 15.6331 22.6789C16.3428 22.6789 17.0786 22.4813 17.848 22.0575C18.2334 21.8452 18.5045 21.4818 18.6038 21.0642ZM11.3278 21.0642C11.4403 21.9661 11.9773 22.7697 12.7854 23.2156C13.7162 23.7291 14.6679 24 15.6331 24C16.5991 24 17.5523 23.7287 18.4854 23.2147C19.2939 22.7693 19.8314 21.966 19.9445 21.0642H21.8716C22.6417 21.0642 23.2661 20.4399 23.2661 19.6697V18.5853C23.2661 18.143 23.0563 17.7278 22.7023 17.4653L21.5229 16.4341V13.1241C21.5229 10.4506 19.3878 8 15.633 8C11.8704 8 9.74312 10.5413 9.74312 13.1241V16.4341L8.56373 17.4653C8.20978 17.7278 8 18.143 8 18.5853V19.6697C8 20.4399 8.62434 21.0642 9.3945 21.0642H11.3278Z" fill="#646F79"/>
</svg>

<svg width="32" height="32" fill="none" xmlns="http://www.w3.org/2000/svg"><path fill-rule="evenodd" clip-rule="evenodd" d="M15.633 9.321c-3.087 0-4.569 2.003-4.569 3.803v3.61a.66.66 0 0 1-.226.497l-1.428 1.25a.666.666 0 0 1-.057.044.073.073 0 0 0-.032.06v1.085c0 .04.033.073.074.073h12.477c.04 0 .073-.033.073-.073v-1.085a.073.073 0 0 0-.032-.06.66.66 0 0 1-.057-.045l-1.428-1.249a.66.66 0 0 1-.226-.497v-3.61c0-1.875-1.474-3.803-4.569-3.803Zm2.97 11.743h-5.935c.1.418.37.782.756.995.766.423 1.5.62 2.21.62.709 0 1.445-.198 2.214-.621.385-.213.657-.576.756-.994Zm-7.275 0c.112.902.65 1.706 1.457 2.152.931.513 1.883.784 2.848.784.966 0 1.92-.271 2.852-.785a2.863 2.863 0 0 0 1.46-2.15h1.927c.77 0 1.394-.625 1.394-1.395v-1.085c0-.442-.21-.857-.564-1.12l-1.18-1.03v-3.31C21.523 10.45 19.389 8 15.634 8c-3.763 0-5.89 2.541-5.89 5.124v3.31l-1.18 1.031A1.395 1.395 0 0 0 8 18.585v1.085c0 .77.624 1.394 1.395 1.394h1.933Z" fill="#646F79"/></svg>
